packages/assets/static/images/icons/share-fat.svg

<svg width="24" height="24" viewBox="0 0 24 24" xmlns="http://www.w3.org/2000/svg" fill="currentColor" aria-hidden="true"> <path d="M22.546 10.828L15.046 3.32799C14.8887 3.17054 14.6882 3.06327 14.47 3.01976C14.2517 2.97625 14.0255 2.99845 13.8198 3.08355C13.6142 3.16866 13.4384 3.31284 13.3147 3.49787C13.1911 3.68289 13.125 3.90044 13.125 4.12299V7.56737C10.71 7.85987 8.09441 9.05706 5.92973 10.8927C3.19598 13.2121 1.49348 16.2074 1.13535 19.3302C1.09907 19.6436 1.16251 19.9604 1.31666 20.2356C1.47081 20.5109 1.70781 20.7305 1.99396 20.8633C2.28012 20.9961 2.60086 21.0353 2.91057 20.9753C3.22028 20.9154 3.5032 20.7593 3.7191 20.5292C4.69973 19.4849 8.12535 16.2411 13.125 15.8024V19.123C13.1252 19.3454 13.1913 19.5627 13.315 19.7475C13.4386 19.9323 13.6142 20.0764 13.8197 20.1614C14.0251 20.2465 14.2511 20.2688 14.4692 20.2254C14.6873 20.1821 14.8877 20.0751 15.045 19.918L22.545 12.418C22.7558 12.2072 22.8743 11.9213 22.8745 11.6232C22.8747 11.3251 22.7565 11.0391 22.546 10.828ZM15.375 16.4042V14.623C15.375 14.3246 15.2565 14.0385 15.0455 13.8275C14.8346 13.6165 14.5484 13.498 14.25 13.498C9.65629 13.498 6.1341 15.5192 3.95723 17.2583C4.62566 15.5558 5.79754 13.9564 7.38566 12.6092C9.49691 10.8177 12.0629 9.74799 14.25 9.74799C14.5484 9.74799 14.8346 9.62947 15.0455 9.41849C15.2565 9.20751 15.375 8.92136 15.375 8.62299V6.84174L20.1563 11.623L15.375 16.4042Z"/> </svg>

<svg viewBox="0 0 24 24" xmlns="http://www.w3.org/2000/svg" aria-hidden="true" fill="currentColor"><path d="m22.546 10.828-7.5-7.5a1.125 1.125 0 0 0-1.921.795v3.444c-2.415.293-5.03 1.49-7.195 3.326-2.734 2.32-4.437 5.314-4.795 8.437a1.5 1.5 0 0 0 2.584 1.2c.98-1.045 4.406-4.289 9.406-4.728v3.321a1.124 1.124 0 0 0 1.92.795l7.5-7.5a1.125 1.125 0 0 0 .001-1.59m-7.171 5.576v-1.781a1.125 1.125 0 0 0-1.125-1.125c-4.594 0-8.116 2.021-10.293 3.76.669-1.702 1.84-3.302 3.429-4.649 2.11-1.791 4.677-2.861 6.864-2.861a1.125 1.125 0 0 0 1.125-1.125V6.842l4.781 4.781z"/></svg>
